;FLAVOR:Marlin
;TIME:6329
;Filament used: 4.26295m
;Layer height: 0.2
;MINX:118.936
;MINY:124.985
;MINZ:0.1
;MAXX:181.064
;MAXY:176.915
;MAXZ:49.1
;TARGET_MACHINE.NAME:Creality CR-10 Smart
;Generated with Cura_SteamEngine 5.7.1
M140 S70
M105
M190 S70
M104 S210
M105
M109 S210
M82 ;absolute extrusion mode
M201 X500.00 Y500.00 Z100.00 E5000.00 ;Setup machine max acceleration
M203 X500.00 Y500.00 Z10.00 E50.00 ;Setup machine max feedrate
M204 P500.00 R1000.00 T500.00 ;Setup Print/Retract/Travel acceleration
M205 X8.00 Y8.00 Z0.40 E5.00 ;Setup Jerk
M220 S100 ;Reset Feedrate
M221 S100 ;Reset Flowrate

G28 ;Home

G92 E0 ;Reset Extruder
G1 Z2.0 F3000 ;Move Z Axis up
G1 X10.1 Y20 Z0.28 F5000.0 ;Move to start position
G1 X10.1 Y200.0 Z0.28 F1500.0 E15 ;Draw the first line
G1 X10.4 Y200.0 Z0.28 F5000.0 ;Move to side a little
G1 X10.4 Y20 Z0.28 F1500.0 E30 ;Draw the second line
G92 E0 ;Reset Extruder
G1 Z2.0 F3000 ;Move Z Axis up

G92 E0
G92 E0
G1 F1500 E-2
;LAYER_COUNT:246
;LAYER:0
M107
G0 F6000 X123.506 Y128.679 Z0.1
;TYPE:SKIRT
G1 F1500 E0
G1 F1200 X124.087 Y128.181 E0.0126
G1 X124.555 Y127.806 E0.02247
G1 X125.342 Y127.231 E0.03852
G1 X126.151 Y126.743 E0.05407
G1 X127.279 Y126.209 E0.07462
G1 X128.143 Y125.862 E0.08995
G1 X129.065 Y125.541 E0.10602
G1 X129.967 Y125.313 E0.12134
G1 X130.605 Y125.199 E0.13201
G1 X131.247 Y125.106 E0.14269
G1 X132.594 Y124.998 E0.16494
G1 X133.524 Y124.985 E0.18025
G1 X137.91 Y124.987 E0.25246
G1 X138.63 Y125 E0.26432
G1 X139.552 Y125.055 E0.27952
G1 X141.211 Y125.227 E0.30698
G1 X143.75 Y125.445 E0.34894
G1 X146.25 Y125.584 E0.39016
G1 X148.793 Y125.656 E0.43205
G1 X151.281 Y125.656 E0.47301
G1 X153.84 Y125.584 E0.51516
G1 X156.303 Y125.444 E0.55577
G1 X158.885 Y125.223 E0.59844
G1 X160.44 Y125.057 E0.62418
G1 X161.278 Y125 E0.63801
G1 X161.945 Y124.986 E0.64899
G1 X166.639 Y124.99 E0.72628
G1 X167.44 Y125.003 E0.73946
G1 X168.405 Y125.062 E0.75538
G1 X169.173 Y125.169 E0.76815
G1 X169.793 Y125.281 E0.77852
G1 X170.743 Y125.497 E0.79456
G1 X171.679 Y125.799 E0.81075
G1 X172.34 Y126.054 E0.82242
G1 X172.782 Y126.239 E0.83031
G1 X173.664 Y126.655 E0.84636
G1 X174.444 Y127.11 E0.86123
G1 X175.051 Y127.527 E0.87335
G1 X175.744 Y128.04 E0.88755
G1 X176.446 Y128.608 E0.90242
G1 X177.198 Y129.336 E0.91965
G1 X177.847 Y130.092 E0.93605
G1 X178.295 Y130.677 E0.94818
G1 X178.568 Y131.053 E0.95583
G1 X179.084 Y131.836 E0.97127
G1 X179.532 Y132.662 E0.98674
G1 X179.827 Y133.32 E0.99861
G1 X180.132 Y134.065 E1.01187
G1 X180.451 Y134.956 E1.02745
G1 X180.768 Y136.261 E1.04956
G1 X180.949 Y137.386 E1.06832
G1 X181.042 Y138.466 E1.08616
G1 X181.058 Y139.111 E1.09679
G1 X181.064 Y165.172 E1.52585
G1 X181.052 Y166.075 E1.54072
G1 X180.995 Y167.047 E1.55675
G1 X180.851 Y168.01 E1.57278
G1 X180.622 Y168.957 E1.58882
G1 X180.312 Y169.879 E1.60483
G1 X179.951 Y170.707 E1.6197
G1 X179.45 Y171.624 E1.63691
G1 X178.908 Y172.433 E1.65294
G1 X178.297 Y173.19 E1.66896
G1 X177.671 Y173.842 E1.68384
G1 X176.883 Y174.529 E1.70105
G1 X176.123 Y175.079 E1.71649
G1 X175.256 Y175.597 E1.73312
G1 X174.378 Y176.019 E1.74916
G1 X173.468 Y176.361 E1.76517
G1 X172.529 Y176.622 E1.78121
G1 X171.56 Y176.801 E1.79743
G1 X170.379 Y176.9 E1.81695
G1 X169.66 Y176.915 E1.82879
G1 X168.657 Y176.914 E1.8453
G1 X166.34 Y176.874 E1.88345
G1 X163.798 Y176.87 E1.9253
G1 X161.721 Y176.915 E1.95951
G1 X138.497 Y176.914 E2.34186
G1 X136.18 Y176.874 E2.38001
G1 X133.636 Y176.87 E2.4219
G1 X131.493 Y176.915 E2.45719
G1 X129.841 Y176.903 E2.48439
G1 X128.869 Y176.851 E2.50041
G1 X127.905 Y176.713 E2.51644
G1 X126.957 Y176.49 E2.53248
G1 X126.032 Y176.184 E2.54852
G1 X125.137 Y175.798 E2.56457
G1 X124.282 Y175.334 E2.58058
G1 X123.469 Y174.796 E2.59663
G1 X122.709 Y174.189 E2.61264
G1 X122.029 Y173.542 E2.6281
G1 X121.363 Y172.784 E2.64471
G1 X120.787 Y171.998 E2.66075
G1 X120.284 Y171.164 E2.67679
G1 X119.857 Y170.288 E2.69283
G1 X119.51 Y169.38 E2.70884
G1 X119.242 Y168.443 E2.72488
G1 X119.07 Y167.556 E2.73976
G1 X118.949 Y166.198 E2.7622
G1 X118.936 Y165.573 E2.7725
G1 X118.937 Y139.507 E3.20164
G1 X118.949 Y138.771 E3.21376
G1 X119.011 Y137.763 E3.23039
G1 X119.057 Y137.345 E3.23731
G1 X119.291 Y136.002 E3.25975
G1 X119.472 Y135.281 E3.27199
G1 X119.649 Y134.66 E3.28262
G1 X119.959 Y133.737 E3.29865
G1 X120.334 Y132.876 E3.31411
G1 X120.813 Y131.996 E3.33061
G1 X121.264 Y131.308 E3.34415
G1 X121.637 Y130.785 E3.35473
G1 X122.061 Y130.223 E3.36632
G1 X122.64 Y129.531 E3.38118
G1 X123.506 Y128.679 E3.40118
G0 F6000 X123.766 Y128.983
G1 F1200 X124.337 Y128.493 E3.41356
G1 X124.791 Y128.129 E3.42314
G1 X125.549 Y127.574 E3.43861
G1 X126.358 Y127.086 E3.45417
G1 X127.45 Y126.571 E3.47404
G1 X128.275 Y126.24 E3.48868
G1 X129.163 Y125.929 E3.50417
G1 X130.038 Y125.707 E3.51903
G1 X130.663 Y125.595 E3.52949
G1 X131.279 Y125.505 E3.53973
G1 X132.626 Y125.397 E3.56198
G1 X133.524 Y125.385 E3.57677
G1 X137.903 Y125.387 E3.64886
G1 X138.606 Y125.399 E3.66044
G1 X139.511 Y125.453 E3.67536
G1 X141.177 Y125.626 E3.70294
G1 X143.716 Y125.843 E3.74489
G1 X146.239 Y125.984 E3.7865
G1 X148.782 Y126.056 E3.82838
G1 X151.292 Y126.056 E3.86971
G1 X153.851 Y125.984 E3.91185
G1 X156.337 Y125.842 E3.95285
G1 X158.919 Y125.622 E3.99551
G1 X160.467 Y125.456 E4.02114
G1 X161.287 Y125.4 E4.03468
G1 X161.945 Y125.386 E4.04551
G1 X166.633 Y125.39 E4.12269
G1 X167.416 Y125.402 E4.13559
G1 X168.35 Y125.458 E4.15099
G1 X169.102 Y125.563 E4.16349
G1 X169.705 Y125.671 E4.17358
G1 X170.621 Y125.878 E4.18904
G1 X171.535 Y126.172 E4.20485
G1 X172.186 Y126.423 E4.21633
G1 X172.612 Y126.601 E4.22393
G1 X173.462 Y127.001 E4.2394
G1 X174.242 Y127.456 E4.25427
G1 X174.813 Y127.849 E4.26568
G1 X175.492 Y128.351 E4.27958
G1 X176.194 Y128.919 E4.29445
G1 X176.894 Y129.597 E4.31049
G1 X177.543 Y130.353 E4.3269
G1 X177.971 Y130.912 E4.33849
G1 X178.234 Y131.274 E4.34586
G1 X178.732 Y132.027 E4.36072
G1 X179.18 Y132.853 E4.37619
G1 X179.457 Y133.471 E4.38734
G1 X179.755 Y134.2 E4.4003
G1 X180.074 Y135.091 E4.41589
G1 X180.379 Y136.355 E4.43729
G1 X180.55 Y137.42 E4.45505
G1 X180.643 Y138.5 E4.4729
G1 X180.658 Y139.111 E4.48296
G1 X180.664 Y165.167 E4.91194
G1 X180.653 Y166.052 E4.92651
G1 X180.599 Y166.989 E4.94196
G1 X180.462 Y167.917 E4.95741
G1 X180.243 Y168.83 E4.97287
G1 X179.945 Y169.719 E4.9883
G1 X179.584 Y170.547 E5.00317
G1 X179.118 Y171.402 E5.01921
G1 X178.596 Y172.182 E5.03466
G1 X178.008 Y172.913 E5.0501
G1 X177.382 Y173.565 E5.06498
G1 X176.648 Y174.205 E5.08102
G1 X175.888 Y174.755 E5.09646
G1 X175.082 Y175.237 E5.11192
G1 X174.237 Y175.645 E5.12737
G1 X173.36 Y175.976 E5.14281
G1 X172.456 Y176.229 E5.15826
G1 X171.527 Y176.402 E5.17382
G1 X170.346 Y176.501 E5.19333
G1 X169.66 Y176.515 E5.20463
G1 X168.664 Y176.514 E5.22102
G1 X166.347 Y176.474 E5.25918
G1 X163.79 Y176.47 E5.30128
G1 X161.721 Y176.515 E5.33535
G1 X138.504 Y176.514 E5.71759
G1 X136.187 Y176.474 E5.75574
G1 X133.629 Y176.47 E5.79785
G1 X131.496 Y176.515 E5.83298
G1 X129.862 Y176.504 E5.85988
G1 X128.925 Y176.455 E5.87533
G1 X127.996 Y176.324 E5.89077
G1 X127.082 Y176.11 E5.90623
G1 X126.19 Y175.817 E5.92169
G1 X125.327 Y175.446 E5.93715
G1 X124.502 Y175 E5.95259
G1 X123.718 Y174.483 E5.96805
G1 X122.985 Y173.899 E5.98348
G1 X122.305 Y173.252 E5.99894
G1 X121.685 Y172.547 E6.01439
G1 X121.129 Y171.791 E6.02984
G1 X120.643 Y170.988 E6.0453
G1 X120.23 Y170.145 E6.06075
G1 X119.894 Y169.27 E6.07618
G1 X119.635 Y168.367 E6.09165
G1 X119.463 Y167.48 E6.10653
G1 X119.349 Y166.19 E6.12785
G1 X119.336 Y165.573 E6.13801
G1 X119.337 Y139.513 E6.56705
G1 X119.348 Y138.796 E6.57886
G1 X119.409 Y137.807 E6.59517
G1 X119.455 Y137.389 E6.6021
G1 X119.679 Y136.099 E6.62365
G1 X119.857 Y135.39 E6.63569
G1 X120.028 Y134.787 E6.64601
G1 X120.326 Y133.897 E6.66146
G1 X120.701 Y133.036 E6.67692
G1 X121.148 Y132.215 E6.69231
G1 X121.59 Y131.54 E6.70559
G1 X121.956 Y131.026 E6.71598
G1 X122.368 Y130.48 E6.72724
G1 X122.947 Y129.788 E6.7421
G1 X123.766 Y128.983 E6.761
G0 F6000 X124.026 Y129.287
G1 F1200 X124.588 Y128.805 E6.77319
G1 X125.028 Y128.451 E6.78249
G1 X125.756 Y127.916 E6.79737
G1 X126.529 Y127.448 E6.81224
G1 X127.621 Y126.933 E6.83212
G1 X128.408 Y126.617 E6.84608
G1 X129.261 Y126.317 E6.86097
G1 X130.136 Y126.095 E6.87583
G1 X130.721 Y125.991 E6.88561
G1 X131.311 Y125.904 E6.89543
G1 X132.658 Y125.796 E6.91768
G1 X133.524 Y125.785 E6.93194
G1 X137.897 Y125.787 E7.00394
G1 X138.582 Y125.798 E7.01521
G1 X139.47 Y125.851 E7.02986
G1 X141.143 Y126.025 E7.05755
G1 X143.682 Y126.241 E7.09951
G1 X146.228 Y126.384 E7.14149
G1 X148.771 Y126.456 E7.18337
G1 X151.303 Y126.456 E7.22506
G1 X153.862 Y126.384 E7.26721
G1 X156.371 Y126.24 E7.30858
G1 X158.953 Y126.021 E7.35124
G1 X160.494 Y125.855 E7.37676
G1 X161.296 Y125.8 E7.39
G1 X161.945 Y125.786 E7.40068
G1 X166.627 Y125.79 E7.47777
G1 X167.393 Y125.801 E7.49038
G1 X168.295 Y125.854 E7.50526
G1 X169.032 Y125.957 E7.51751
G1 X169.617 Y126.061 E7.52729
G1 X170.499 Y126.259 E7.54217
G1 X171.391 Y126.545 E7.55759
G1 X172.032 Y126.792 E7.5689
G1 X172.442 Y126.963 E7.57622
G1 X173.26 Y127.347 E7.59109
G1 X174.04 Y127.802 E7.60596
G1 X174.575 Y128.171 E7.61666
G1 X175.24 Y128.662 E7.63027
G1 X175.942 Y129.23 E7.64514
G1 X176.591 Y129.858 E7.66001
G1 X177.225 Y130.596 E7.67602
G1 X177.647 Y131.147 E7.68745
G1 X177.9 Y131.495 E7.69453
G1 X178.398 Y132.248 E7.7094
G1 X178.828 Y133.043 E7.72428
G1 X179.087 Y133.623 E7.73474
G1 X179.379 Y134.335 E7.74741
G1 X179.685 Y135.185 E7.76228
G1 X179.984 Y136.419 E7.78318
G1 X180.151 Y137.454 E7.80044
G1 X180.244 Y138.534 E7.81829
G1 X180.258 Y139.111 E7.82779
G1 X180.264 Y165.162 E8.25669
G1 X180.254 Y166.029 E8.27097
G1 X180.203 Y166.931 E8.28584
G1 X180.073 Y167.824 E8.3007
G1 X179.864 Y168.703 E8.31557
G1 X179.578 Y169.559 E8.33043
G1 X179.217 Y170.387 E8.3453
G1 X178.785 Y171.18 E8.36017
G1 X178.284 Y171.932 E8.37505
G1 X177.719 Y172.636 E8.38991
G1 X177.093 Y173.288 E8.40479
G1 X176.413 Y173.881 E8.41964
G1 X175.682 Y174.412 E8.43452
G1 X174.908 Y174.877 E8.44938
G1 X174.095 Y175.271 E8.46426
G1 X173.251 Y175.591 E8.47912
G1 X172.382 Y175.836 E8.49398
G1 X171.494 Y176.003 E8.50886
G1 X170.313 Y176.102 E8.52837
G1 X169.66 Y176.115 E8.53912
G1 X168.671 Y176.114 E8.55541
G1 X166.354 Y176.074 E8.59356
G1 X163.782 Y176.07 E8.6359
G1 X161.721 Y176.115 E8.66984
G1 X138.511 Y176.114 E9.05197
G1 X136.194 Y176.074 E9.09012
G1 X133.622 Y176.07 E9.13247
G1 X131.498 Y176.115 E9.16744
G1 X129.882 Y176.105 E9.19405
G1 X128.98 Y176.059 E9.20892
G1 X128.086 Y175.934 E9.22378
G1 X127.206 Y175.73 E9.23865
G1 X126.347 Y175.449 E9.25353
G1 X125.517 Y175.094 E9.26839
G1 X124.722 Y174.666 E9.28326
G1 X123.967 Y174.17 E9.29813
G1 X123.26 Y173.609 E9.31299
G1 X122.605 Y172.987 E9.32786
G1 X122.007 Y172.31 E9.34273
G1 X121.471 Y171.583 E9.3576
G1 X121.002 Y170.811 E9.37248
G1 X120.603 Y170.001 E9.38734
G1 X120.278 Y169.159 E9.4022
G1 X120.028 Y168.291 E9.41707
G1 X119.856 Y167.404 E9.43195
G1 X119.749 Y166.181 E9.45216
G1 X119.736 Y165.573 E9.46217
G1 X119.737 Y139.519 E9.89112
G1 X119.747 Y138.821 E9.90261
G1 X119.807 Y137.851 E9.91861
G1 X119.853 Y137.433 E9.92554
G1 X120.067 Y136.196 E9.9462
G1 X120.242 Y135.499 E9.95804
G1 X120.408 Y134.913 E9.96806
G1 X120.693 Y134.056 E9.98293
G1 X121.052 Y133.227 E9.99781
G1 X121.483 Y132.434 E10.01266
G1 X121.916 Y131.772 E10.02569
G1 X122.276 Y131.267 E10.0359
G1 X122.675 Y130.737 E10.04682
G1 X123.254 Y130.045 E10.06168
G1 X124.026 Y129.287 E10.07949
G1 F1500 E8.07949
G0 F6000 X138.015 Y135.378
G0 X138.015 Y136.186
G1 F1500 E10.07949
G1 F1200 X138.215 Y136.186 E10.08278
G1 X138.215 Y137.74 E10.10837
G1 X138.015 Y137.74 E10.11166
G1 X138.015 Y136.186 E10.13724
G1 F1500 E8.13724
G0 F6000 X138.48 Y136.186
G0 X138.415 Y147.965
G1 F1500 E10.13724
G1 F1200 X138.464 Y148.168 E10.14068
G1 X138.469 Y148.188 E10.14102
G1 X138.604 Y148.57 E10.14769
G1 X138.617 Y148.598 E10.1482
G1 X138.824 Y148.984 E10.15541
G1 X138.839 Y149.008 E10.15588
G1 X139.14 Y149.416 E10.16422
G1 X139.169 Y149.447 E10.16492
G1 X139.591 Y149.817 E10.17416
G1 X139.61 Y149.832 E10.17456
G1 X139.877 Y150.016 E10.1799
G1 X139.896 Y150.028 E10.18027
G1 X140.209 Y150.194 E10.1861
G1 X140.229 Y150.203 E10.18646
G1 X140.538 Y150.327 E10.19195
G1 X140.556 Y150.333 E10.19226
G1 X140.882 Y150.428 E10.19785
G1 X140.898 Y150.432 E10.19812
G1 X141.176 Y150.489 E10.20279
G1 X141.189 Y150.491 E10.20301
G1 X141.522 Y150.537 E10.20854
G1 X141.534 Y150.538 E10.20874
G1 X142.044 Y150.576 E10.21716
G1 X142.054 Y150.577 E10.21733
G1 X142.663 Y150.592 E10.22736
G1 X142.669 Y150.592 E10.22745
G1 X158.213 Y150.524 E10.48337
G1 X158.23 Y150.523 E10.48365
G1 X158.715 Y150.48 E10.49167
G1 X158.733 Y150.478 E10.49196
G1 X159.13 Y150.406 E10.49861
G1 X159.15 Y150.401 E10.49895
G1 X159.536 Y150.289 E10.50556
G1 X159.555 Y150.282 E10.5059
G1 X159.916 Y150.135 E10.51231
G1 X159.946 Y150.12 E10.51287
G1 X160.39 Y149.845 E10.52147
G1 X160.418 Y149.824 E10.52204
G1 X160.709 Y149.565 E10.52846
G1 X160.726 Y149.549 E10.52884
G1 X160.933 Y149.315 E10.53398
G1 X160.946 Y149.298 E10.53434
G1 X161.216 Y148.918 E10.54201
G1 X161.233 Y148.89 E10.54255
G1 X161.42 Y148.508 E10.54955
G1 X161.428 Y148.488 E10.54991
G1 X161.52 Y148.233 E10.55437
G1 X161.525 Y148.216 E10.55466
G1 X161.588 Y147.978 E10.55871
G1 X161.85 Y148.011 E10.56306
G1 X161.85 Y165.715 E10.85454
G1 X138.15 Y165.715 E11.24473
G1 X138.15 Y147.996 E11.53645
G1 X138.415 Y147.965 E11.54084
G0 F6000 X138.55 Y149.29
G1 F1200 X138.818 Y149.653 E11.54827
G1 X138.905 Y149.748 E11.55039
G1 X139.327 Y150.118 E11.55963
G1 X139.383 Y150.161 E11.56079
G1 X139.65 Y150.345 E11.56613
G1 X139.709 Y150.381 E11.56727
G1 X140.022 Y150.547 E11.5731
G1 X140.08 Y150.574 E11.57416
G1 X140.389 Y150.698 E11.57964
G1 X140.444 Y150.717 E11.5806
G1 X140.77 Y150.812 E11.58619
G1 X140.817 Y150.824 E11.58699
G1 X141.095 Y150.881 E11.59166
G1 X141.134 Y150.887 E11.59231
G1 X141.467 Y150.933 E11.59784
G1 X141.504 Y150.937 E11.59845
G1 X142.014 Y150.975 E11.60687
G1 X142.044 Y150.977 E11.60737
G1 X142.653 Y150.992 E11.6174
G1 X142.671 Y150.992 E11.6177
G1 X158.215 Y150.924 E11.87361
G1 X158.265 Y150.922 E11.87443
G1 X158.75 Y150.879 E11.88245
G1 X158.804 Y150.871 E11.88335
G1 X159.201 Y150.799 E11.88999
G1 X159.261 Y150.785 E11.89101
G1 X159.647 Y150.673 E11.89762
G1 X159.706 Y150.653 E11.89865
G1 X160.067 Y150.506 E11.90507
G1 X160.157 Y150.46 E11.90673
G1 X160.601 Y150.185 E11.91533
G1 X160.684 Y150.123 E11.91703
G1 X160.975 Y149.864 E11.92345
G1 X161.025 Y149.814 E11.92461
G1 X161.232 Y149.58 E11.92976
G1 X161.272 Y149.53 E11.93081
G1 X161.45 Y149.279 E11.93588
G1 X161.45 Y165.315 E12.19989
G1 X138.55 Y165.315 E12.57691
G1 X138.55 Y149.29 E12.84074
G0 F6000 X138.95 Y150.319
G1 F1200 X139.064 Y150.419 E12.84324
G1 X139.156 Y150.49 E12.84515
G1 X139.423 Y150.674 E12.85049
G1 X139.521 Y150.734 E12.85238
G1 X139.834 Y150.9 E12.85821
G1 X139.931 Y150.945 E12.85998
G1 X140.24 Y151.069 E12.86546
G1 X140.332 Y151.101 E12.86706
G1 X140.658 Y151.196 E12.87265
G1 X140.737 Y151.216 E12.87399
G1 X141.015 Y151.273 E12.87866
G1 X141.079 Y151.284 E12.87973
G1 X141.412 Y151.33 E12.88527
G1 X141.475 Y151.336 E12.88631
G1 X141.985 Y151.374 E12.89473
G1 X142.034 Y151.377 E12.89554
G1 X142.643 Y151.392 E12.90557
G1 X142.672 Y151.392 E12.90605
G1 X158.216 Y151.324 E13.16196
G1 X158.3 Y151.32 E13.16334
G1 X158.785 Y151.277 E13.17136
G1 X158.875 Y151.265 E13.17286
G1 X159.272 Y151.193 E13.1795
G1 X159.373 Y151.169 E13.18121
G1 X159.759 Y151.057 E13.18782
G1 X159.857 Y151.023 E13.18953
G1 X160.218 Y150.876 E13.19595
G1 X160.368 Y150.8 E13.19872
