;FLAVOR:Marlin
;TIME:5477
;Filament used: 4.01368m
;Layer height: 0.2
;MINX:115.451
;MINY:125.061
;MINZ:0.1
;MAXX:184.529
;MAXY:175.007
;MAXZ:29.9
;TARGET_MACHINE.NAME:Creality CR-10 Smart
;Generated with Cura_SteamEngine 5.7.1
M140 S70
M105
M190 S70
M104 S210
M105
M109 S210
M82 ;absolute extrusion mode
M201 X500.00 Y500.00 Z100.00 E5000.00 ;Setup machine max acceleration
M203 X500.00 Y500.00 Z10.00 E50.00 ;Setup machine max feedrate
M204 P500.00 R1000.00 T500.00 ;Setup Print/Retract/Travel acceleration
M205 X8.00 Y8.00 Z0.40 E5.00 ;Setup Jerk
M220 S100 ;Reset Feedrate
M221 S100 ;Reset Flowrate

G28 ;Home

G92 E0 ;Reset Extruder
G1 Z2.0 F3000 ;Move Z Axis up
G1 X10.1 Y20 Z0.28 F5000.0 ;Move to start position
G1 X10.1 Y200.0 Z0.28 F1500.0 E15 ;Draw the first line
G1 X10.4 Y200.0 Z0.28 F5000.0 ;Move to side a little
G1 X10.4 Y20 Z0.28 F1500.0 E30 ;Draw the second line
G92 E0 ;Reset Extruder
G1 Z2.0 F3000 ;Move Z Axis up

G92 E0
G92 E0
G1 F1500 E-2
;LAYER_COUNT:150
;LAYER:0
M107
G0 F6000 X119.098 Y128.397 Z0.1
;TYPE:SKIRT
G1 F1500 E0
G1 F1200 X120.015 Y127.602 E0.01998
G1 X120.904 Y126.967 E0.03797
G1 X121.741 Y126.474 E0.05396
G1 X122.511 Y126.101 E0.06805
G1 X122.791 Y125.98 E0.07307
G1 X123.701 Y125.635 E0.08909
G1 X124.569 Y125.388 E0.10395
G1 X125.842 Y125.155 E0.12526
G1 X126.936 Y125.061 E0.14333
G1 X127.839 Y125.063 E0.1582
G1 X128.957 Y125.161 E0.17668
G1 X130.022 Y125.354 E0.1945
G1 X130.959 Y125.61 E0.21049
G1 X131.772 Y125.906 E0.22473
G1 X132.049 Y126.021 E0.22967
G1 X133.026 Y126.483 E0.24746
G1 X133.519 Y126.754 E0.25673
G1 X177.975 Y152.419 E1.10185
G1 X178.872 Y152.954 E1.11905
G1 X179.656 Y153.472 E1.13452
G1 X180.444 Y154.1 E1.15111
G1 X181.125 Y154.748 E1.16658
G1 X181.821 Y155.542 E1.18397
G1 X182.051 Y155.833 E1.19007
G1 X182.62 Y156.624 E1.20612
G1 X183.115 Y157.459 E1.2221
G1 X183.55 Y158.357 E1.23853
G1 X183.948 Y159.401 E1.25692
G1 X184.211 Y160.334 E1.27288
G1 X184.401 Y161.324 E1.28948
G1 X184.513 Y162.394 E1.30719
G1 X184.529 Y163.366 E1.32319
G1 X184.467 Y164.284 E1.33834
G1 X184.435 Y164.561 E1.34293
G1 X184.278 Y165.54 E1.35926
G1 X184.039 Y166.482 E1.37526
G1 X183.695 Y167.474 E1.39254
G1 X183.267 Y168.437 E1.40989
G1 X182.775 Y169.319 E1.42652
G1 X182.175 Y170.201 E1.44408
G1 X181.493 Y171.038 E1.46186
G1 X180.813 Y171.734 E1.47788
G1 X180.13 Y172.323 E1.49273
G1 X179.893 Y172.51 E1.4977
G1 X179.103 Y173.077 E1.51371
G1 X178.268 Y173.573 E1.5297
G1 X177.416 Y173.987 E1.54529
G1 X176.347 Y174.397 E1.56414
G1 X175.446 Y174.654 E1.57957
G1 X174.597 Y174.822 E1.59382
G1 X174.279 Y174.87 E1.59911
G1 X172.877 Y174.995 E1.62229
G1 X172.238 Y175.007 E1.63281
G1 X127.894 Y175.005 E2.36288
G1 X127.144 Y174.992 E2.37523
G1 X125.919 Y174.906 E2.39544
G1 X124.921 Y174.741 E2.4121
G1 X123.91 Y174.48 E2.42929
G1 X123.079 Y174.187 E2.4438
G1 X122.814 Y174.08 E2.4485
G1 X121.928 Y173.678 E2.46452
G1 X121.141 Y173.235 E2.47939
G1 X120.275 Y172.648 E2.49661
G1 X119.444 Y171.971 E2.51426
G1 X118.746 Y171.293 E2.53028
G1 X118.14 Y170.594 E2.54551
G1 X117.952 Y170.356 E2.5505
G1 X117.382 Y169.566 E2.56654
G1 X116.919 Y168.79 E2.58142
G1 X116.424 Y167.765 E2.60016
G1 X116.043 Y166.752 E2.61798
G1 X115.782 Y165.818 E2.63394
G1 X115.621 Y164.978 E2.64803
G1 X115.577 Y164.676 E2.65305
G1 X115.465 Y163.355 E2.67488
G1 X115.451 Y162.576 E2.6877
G1 X115.453 Y137.494 E3.10065
G1 X115.465 Y136.744 E3.113
G1 X115.557 Y135.48 E3.13386
G1 X115.759 Y134.323 E3.1532
G1 X116.013 Y133.389 E3.16913
G1 X116.331 Y132.508 E3.18456
G1 X116.776 Y131.526 E3.20231
G1 X117.219 Y130.739 E3.21717
G1 X117.794 Y129.889 E3.23407
G1 X118.472 Y129.049 E3.25184
G1 X119.098 Y128.397 E3.26672
G0 F6000 X119.387 Y128.674
G1 F1200 X120.248 Y127.927 E3.28549
G1 X121.108 Y127.311 E3.30291
G1 X121.915 Y126.834 E3.31834
G1 X122.67 Y126.468 E3.33215
G1 X122.933 Y126.354 E3.33687
G1 X123.81 Y126.02 E3.35232
G1 X124.678 Y125.773 E3.36718
G1 X125.877 Y125.553 E3.38725
G1 X126.935 Y125.461 E3.40473
G1 X127.838 Y125.463 E3.4196
G1 X128.886 Y125.555 E3.43692
G1 X129.917 Y125.74 E3.45417
G1 X130.822 Y125.986 E3.46961
G1 X131.619 Y126.276 E3.48357
G1 X131.878 Y126.383 E3.48818
G1 X132.834 Y126.834 E3.50559
G1 X133.319 Y127.1 E3.51469
G1 X177.77 Y152.762 E4.35973
G1 X178.651 Y153.288 E4.37662
G1 X179.435 Y153.806 E4.39209
G1 X180.168 Y154.39 E4.40752
G1 X180.849 Y155.038 E4.423
G1 X181.508 Y155.791 E4.43947
G1 X181.727 Y156.067 E4.44527
G1 X182.276 Y156.828 E4.46072
G1 X182.755 Y157.634 E4.47616
G1 X183.176 Y158.5 E4.49201
G1 X183.563 Y159.51 E4.50982
G1 X183.818 Y160.41 E4.52522
G1 X184.003 Y161.366 E4.54125
G1 X184.113 Y162.401 E4.55838
G1 X184.13 Y163.339 E4.57383
G1 X184.069 Y164.239 E4.58868
G1 X184.04 Y164.498 E4.59297
G1 X183.89 Y165.442 E4.60871
G1 X183.661 Y166.351 E4.62414
G1 X183.329 Y167.312 E4.64088
G1 X182.901 Y168.275 E4.65823
G1 X182.444 Y169.095 E4.67369
G1 X181.865 Y169.949 E4.69067
G1 X181.206 Y170.759 E4.70786
G1 X180.552 Y171.431 E4.7233
G1 X179.882 Y172.009 E4.73787
G1 X179.659 Y172.185 E4.74255
G1 X178.898 Y172.733 E4.75799
G1 X178.093 Y173.213 E4.77342
G1 X177.241 Y173.627 E4.78901
G1 X176.237 Y174.012 E4.80672
G1 X175.336 Y174.269 E4.82214
G1 X174.536 Y174.427 E4.83557
G1 X174.243 Y174.472 E4.84045
G1 X172.869 Y174.595 E4.86316
G1 X172.238 Y174.607 E4.87355
G1 X127.901 Y174.605 E5.6035
G1 X127.172 Y174.593 E5.61551
G1 X125.984 Y174.511 E5.63511
G1 X124.986 Y174.346 E5.65177
G1 X124.043 Y174.103 E5.6678
G1 X123.228 Y173.816 E5.68203
G1 X122.979 Y173.716 E5.68644
G1 X122.124 Y173.329 E5.70189
G1 X121.337 Y172.886 E5.71676
G1 X120.527 Y172.338 E5.73286
G1 X119.722 Y171.684 E5.74994
G1 X119.048 Y171.031 E5.76539
G1 X118.453 Y170.345 E5.78034
G1 X118.276 Y170.122 E5.78503
G1 X117.726 Y169.361 E5.80049
G1 X117.263 Y168.585 E5.81536
G1 X116.798 Y167.624 E5.83294
G1 X116.428 Y166.644 E5.85019
G1 X116.175 Y165.742 E5.86561
G1 X116.017 Y164.92 E5.87939
G1 X115.976 Y164.642 E5.88402
G1 X115.864 Y163.321 E5.90584
G1 X115.851 Y162.576 E5.91811
G1 X115.853 Y137.5 E6.33096
G1 X115.864 Y136.773 E6.34293
G1 X115.956 Y135.509 E6.36379
G1 X116.145 Y134.427 E6.38188
G1 X116.389 Y133.524 E6.39728
G1 X116.695 Y132.673 E6.41217
G1 X117.125 Y131.722 E6.42935
G1 X117.568 Y130.935 E6.44422
G1 X118.106 Y130.14 E6.46002
G1 X118.761 Y129.326 E6.47722
G1 X119.387 Y128.674 E6.4921
G0 F6000 X119.676 Y128.951
G1 F1200 X120.481 Y128.252 E6.50966
G1 X121.312 Y127.655 E6.5265
G1 X122.089 Y127.194 E6.54138
G1 X122.83 Y126.835 E6.55493
G1 X123.076 Y126.728 E6.55935
G1 X123.919 Y126.405 E6.57421
G1 X124.787 Y126.158 E6.58907
G1 X125.912 Y125.951 E6.6079
G1 X126.934 Y125.861 E6.62479
G1 X127.837 Y125.863 E6.63966
G1 X128.816 Y125.949 E6.65584
G1 X129.813 Y126.126 E6.67251
G1 X130.685 Y126.362 E6.68738
G1 X131.467 Y126.646 E6.70108
G1 X131.708 Y126.745 E6.70537
G1 X132.642 Y127.185 E6.72237
G1 X133.119 Y127.446 E6.73132
G1 X177.565 Y153.106 E7.57626
G1 X178.431 Y153.622 E7.59286
G1 X179.186 Y154.119 E7.60774
G1 X179.893 Y154.68 E7.6226
G1 X180.548 Y155.302 E7.63747
G1 X181.195 Y156.04 E7.65363
G1 X181.403 Y156.302 E7.65914
G1 X181.932 Y157.033 E7.674
G1 X182.395 Y157.809 E7.68887
G1 X182.816 Y158.675 E7.70473
G1 X183.178 Y159.619 E7.72137
G1 X183.425 Y160.487 E7.73623
G1 X183.605 Y161.409 E7.75169
G1 X183.713 Y162.409 E7.76825
G1 X183.731 Y163.312 E7.78312
G1 X183.671 Y164.194 E7.79768
G1 X183.642 Y164.453 E7.80197
G1 X183.502 Y165.345 E7.81683
G1 X183.283 Y166.221 E7.8317
G1 X182.963 Y167.15 E7.84788
G1 X182.551 Y168.081 E7.86464
G1 X182.113 Y168.871 E7.87951
G1 X181.555 Y169.697 E7.89592
G1 X180.919 Y170.48 E7.91253
G1 X180.29 Y171.128 E7.9274
G1 X179.633 Y171.696 E7.9417
G1 X179.425 Y171.861 E7.94607
G1 X178.693 Y172.39 E7.96094
G1 X177.918 Y172.853 E7.9758
G1 X177.066 Y173.267 E7.9914
G1 X176.127 Y173.628 E8.00796
G1 X175.259 Y173.877 E8.02283
G1 X174.474 Y174.032 E8.036
G1 X174.207 Y174.074 E8.04045
G1 X172.861 Y174.195 E8.0627
G1 X172.238 Y174.207 E8.07296
G1 X127.907 Y174.205 E8.80281
G1 X127.199 Y174.194 E8.81447
G1 X126.049 Y174.116 E8.83345
G1 X125.051 Y173.951 E8.8501
G1 X124.176 Y173.726 E8.86498
G1 X123.376 Y173.444 E8.87894
G1 X123.143 Y173.351 E8.88307
G1 X122.32 Y172.98 E8.89793
G1 X121.533 Y172.537 E8.9128
G1 X120.779 Y172.027 E8.92779
G1 X120 Y171.396 E8.94429
G1 X119.35 Y170.769 E8.95916
G1 X118.766 Y170.096 E8.97383
G1 X118.6 Y169.887 E8.97823
G1 X118.07 Y169.156 E8.99309
G1 X117.607 Y168.38 E9.00797
G1 X117.172 Y167.482 E9.0244
G1 X116.813 Y166.535 E9.04107
G1 X116.568 Y165.666 E9.05594
G1 X116.413 Y164.86 E9.06945
G1 X116.375 Y164.608 E9.07364
G1 X116.263 Y163.287 E9.09547
G1 X116.251 Y162.576 E9.10718
G1 X116.253 Y137.506 E9.51993
G1 X116.263 Y136.802 E9.53152
G1 X116.355 Y135.538 E9.55238
G1 X116.531 Y134.531 E9.56921
G1 X116.765 Y133.659 E9.58408
G1 X117.06 Y132.837 E9.59846
G1 X117.474 Y131.918 E9.61505
G1 X117.917 Y131.131 E9.62992
G1 X118.418 Y130.39 E9.64465
G1 X119.05 Y129.603 E9.66126
G1 X119.676 Y128.951 E9.67614
G1 F1500 E7.67614
;MESH:Tope.stl
G0 F6000 X139.83 Y142.404
G0 X135.497 Y150.326
;TYPE:WALL-INNER
G1 F1500 E9.67614
G1 F1030 X135.44 Y150.326 E9.67724
G1 X135.411 Y150.376 E9.67835
G1 X135.441 Y150.426 E9.67946
G1 X135.498 Y150.426 E9.68056
G1 X135.527 Y150.376 E9.68167
G1 F1500 E7.68167
G0 F6000 X135.571 Y152.214
G0 X135.561 Y152.653
G0 X135.619 Y152.876
G1 F1500 E9.68167
G1 F1121.5 X135.757 Y152.735 E9.68514
G1 X135.761 Y152.536 E9.68865
G1 X135.641 Y152.42 E9.69159
G1 X135.278 Y152.474 E9.69805
G1 X135.365 Y152.76 E9.70332
G1 X135.463 Y152.886 E9.70613
G1 X135.619 Y152.876 E9.70889
G0 F6000 X135.561 Y152.653
G0 X135.087 Y152.443
G0 X134.871 Y152.168
G0 X134.543 Y152.096
G0 X133.773 Y152.2
G0 X133.444 Y152.384
G0 X133.337 Y152.788
G0 X133.542 Y153.57
G0 X134.02 Y154.215
G0 X134.685 Y154.608
G0 X139.523 Y155.73
G1 F1200 X138.93 Y155.677 E9.71869
G1 X138.68 Y155.628 E9.72288
G1 X138.213 Y155.488 E9.73091
G1 X137.967 Y155.355 E9.73551
G1 X137.519 Y155.06 E9.74434
G1 X137.189 Y155.288 E9.75095
G1 X136.657 Y155.559 E9.76078
G1 X136.346 Y155.652 E9.76612
G1 X135.573 Y155.731 E9.77891
G1 X134.998 Y155.689 E9.78841
G1 X134.563 Y155.589 E9.79575
G1 X134.257 Y155.48 E9.8011
G1 X133.876 Y155.286 E9.80814
G1 X133.555 Y155.069 E9.81452
G1 X133.303 Y154.849 E9.82003
G1 X133.017 Y154.531 E9.82707
G1 X132.788 Y154.185 E9.8339
G1 X132.64 Y153.891 E9.83932
G1 X132.49 Y153.48 E9.84652
G1 X132.405 Y153.042 E9.85387
G1 X132.377 Y152.681 E9.85983
G1 X132.488 Y152.194 E9.86805
G1 X132.7 Y151.796 E9.87548
G1 X132.978 Y151.522 E9.8819
G1 X132.7 Y151.248 E9.88833
G1 X132.575 Y151.046 E9.89224
G1 X132.444 Y150.654 E9.89905
G1 X132.444 Y150.17 E9.90701
G1 X132.587 Y149.605 E9.91661
G1 X132.732 Y149.249 E9.92294
G1 X132.857 Y149.012 E9.92735
G1 X133.085 Y148.664 E9.9342
G1 X133.402 Y148.327 E9.94182
G1 X133.658 Y148.111 E9.94733
G1 X134.171 Y147.776 E9.95742
G1 X134.492 Y147.67 E9.96298
G1 X134.991 Y147.556 E9.97141
G1 X135.401 Y147.524 E9.97818
G1 X135.673 Y147.529 E9.98266
G1 X136.089 Y147.577 E9.98955
G1 X136.409 Y147.652 E9.99497
G1 X136.849 Y147.816 E10.0027
G1 X137.077 Y147.939 E10.00696
G1 X137.484 Y148.214 E10.01505
G1 X137.81 Y147.991 E10.02155
G1 X138.32 Y147.722 E10.03104
G1 X138.717 Y147.605 E10.03786
G1 X139.228 Y147.533 E10.04635
G1 X139.565 Y147.527 E10.0519
G1 X140.001 Y147.57 E10.05912
G1 X140.341 Y147.648 E10.06486
G1 X140.844 Y147.849 E10.07378
G1 X141.092 Y148 E10.07856
G1 X141.485 Y147.72 E10.0865
G1 X141.926 Y147.567 E10.09419
G1 X142.426 Y147.475 E10.10256
G1 X142.934 Y147.475 E10.11092
G1 F1086 X143.747 Y147.605 E10.1259
G1 F985.6 X144.434 Y148.062 E10.14244
G1 F1078.7 X144.763 Y148.466 E10.15198
G1 F1200 X145.023 Y148.857 E10.15971
G1 X145.233 Y149.376 E10.16893
G1 X145.326 Y149.873 E10.17725
G1 X145.351 Y150.264 E10.1837
G1 X145.318 Y150.828 E10.19301
G1 X145.271 Y151.113 E10.19776
G1 X145.184 Y151.348 E10.20189
G1 X144.972 Y151.792 E10.20999
G1 X144.692 Y152.205 E10.2182
G1 X144.503 Y152.403 E10.22271
G1 X143.865 Y152.855 E10.23558
G1 X143.548 Y152.979 E10.24119
G1 X142.801 Y153.121 E10.2537
G1 X142.475 Y153.1 E10.25908
G1 X142.369 Y153.519 E10.2662
G1 X142.081 Y154.228 E10.2788
G1 X141.755 Y154.651 E10.28759
G1 X141.444 Y154.981 E10.29506
G1 X141.231 Y155.168 E10.29972
G1 X140.493 Y155.562 E10.3135
G1 X140.214 Y155.632 E10.31823
G1 X139.523 Y155.73 E10.32972
G0 F6000 X140.29 Y155.218
G1 F1200 X139.506 Y155.328 E10.34276
G1 X138.877 Y155.27 E10.35316
G1 X138.285 Y155.085 E10.36337
G1 X137.84 Y154.793 E10.37213
G1 X137.557 Y154.532 E10.37847
G1 X137.076 Y154.896 E10.3884
G1 X136.399 Y155.246 E10.40095
G1 X135.534 Y155.333 E10.41526
G1 X135.055 Y155.291 E10.42318
G1 X134.537 Y155.173 E10.43192
G1 X134.102 Y154.958 E10.43991
G1 X133.682 Y154.673 E10.44827
G1 X133.332 Y154.283 E10.4569
G1 X133.056 Y153.864 E10.46516
G1 X132.875 Y153.368 E10.47385
G1 X132.799 Y152.973 E10.48047
G1 X132.779 Y152.712 E10.48478
G1 X132.869 Y152.335 E10.49116
G1 X133.021 Y152.035 E10.4967
G1 X133.238 Y151.821 E10.50172
G1 X133.562 Y151.658 E10.50769
G1 X134.002 Y151.6 E10.51499
G1 X134.005 Y151.539 E10.516
G1 X133.595 Y151.46 E10.52287
G1 X133.238 Y151.223 E10.52993
G1 X132.96 Y150.949 E10.53636
G1 X132.838 Y150.585 E10.54268
G1 X132.838 Y150.239 E10.54837
G1 X132.968 Y149.729 E10.55704
G1 X133.139 Y149.31 E10.56449
G1 X133.396 Y148.918 E10.57221
G1 X133.778 Y148.511 E10.58139
G1 X134.408 Y148.1 E10.59378
G1 X135.058 Y147.951 E10.60476
G1 X135.535 Y147.915 E10.61263
G1 X136.164 Y147.988 E10.62306
G1 X136.763 Y148.21 E10.63358
G1 X137.267 Y148.55 E10.64359
G1 X137.497 Y148.789 E10.64905
G1 X137.877 Y148.409 E10.65789
G1 X138.489 Y148.085 E10.66929
G1 X138.772 Y148.001 E10.67415
G1 X139.4 Y147.913 E10.6846
G1 X140.094 Y147.981 E10.69608
G1 X140.733 Y148.233 E10.70738
G1 X141.095 Y148.495 E10.71474
G1 X141.692 Y148.067 E10.72684
G1 X141.999 Y147.96 E10.73219
G1 X142.499 Y147.868 E10.74056
G1 X142.862 Y147.868 E10.74653
G1 X143.472 Y147.98 E10.75675
G1 X143.68 Y148.077 E10.76052
G1 X144.176 Y148.425 E10.7705
G1 X144.43 Y148.687 E10.77651
G1 X144.69 Y149.079 E10.78425
G1 X144.84 Y149.449 E10.79082
G1 X144.926 Y149.899 E10.79837
G1 X144.947 Y150.207 E10.80345
G1 X144.919 Y150.804 E10.81329
G1 X144.876 Y151.065 E10.81764
G1 X144.619 Y151.603 E10.82746
G1 X144.3 Y152.056 E10.83658
G1 X143.67 Y152.503 E10.8493
G1 X143.473 Y152.581 E10.85279
G1 X142.765 Y152.721 E10.86467
G1 X142.496 Y152.703 E10.86911
G1 X142.155 Y152.64 E10.87482
G1 X142.098 Y152.961 E10.88019
G1 X141.988 Y153.396 E10.88757
G1 X141.717 Y154.045 E10.89915
G1 X141.439 Y154.406 E10.90665
G1 X141.056 Y154.807 E10.91578
G1 X140.29 Y155.218 E10.9301
G0 F6000 X140.16 Y154.832
G1 F1200 X139.473 Y154.929 E10.94152
G1 X138.955 Y154.875 E10.95009
G1 X138.467 Y154.726 E10.95849
G1 X138.115 Y154.494 E10.96543
G1 X137.763 Y154.177 E10.97323
G1 X137.572 Y153.868 E10.97921
G1 X137.262 Y154.254 E10.98736
G1 X136.864 Y154.555 E10.99558
G1 X136.277 Y154.857 E11.00645
G1 X135.53 Y154.932 E11.01881
G1 X135.074 Y154.885 E11.02636
G1 X134.668 Y154.792 E11.03321
G1 X134.294 Y154.604 E11.0401
G1 X133.944 Y154.367 E11.04706
G1 X133.627 Y154.004 E11.055
G1 X133.413 Y153.68 E11.06139
G1 X133.255 Y153.221 E11.06938
G1 X133.179 Y152.835 E11.07586
G1 X133.251 Y152.453 E11.08226
G1 X133.342 Y152.274 E11.08557
G1 X133.472 Y152.145 E11.08858
G1 X133.66 Y152.048 E11.09206
G1 X134.42 Y151.948 E11.10468
G1 X134.397 Y151.625 E11.11002
G1 X134.451 Y151.212 E11.11687
G1 X133.744 Y151.083 E11.1287
G1 X133.367 Y150.828 E11.1362
G1 X133.232 Y150.516 E11.1418
G1 X133.232 Y150.308 E11.14522
G1 X133.364 Y149.816 E11.15361
G1 X133.492 Y149.503 E11.15917
G1 X133.713 Y149.164 E11.16584
